img/android.svg

<svg width="33" height="39" viewBox="0 0 33 39" fill="none" xmlns="http://www.w3.org/2000/svg">
<path fill-rule="evenodd" clip-rule="evenodd" d="M8.56336 0.0606314C8.33905 0.141587 8.23446 0.579874 8.32567 1.05619C8.38628 1.37233 8.42617 1.42102 9.47091 2.45381L10.5533 3.52388L10.1766 3.84745C8.01103 5.7077 6.75027 8.20425 6.61152 10.907L6.59003 11.3251H16.4893H26.3886L26.3673 10.907C26.2251 8.11722 24.8614 5.4823 22.7293 3.87762L22.2796 3.53918L23.3484 2.49239C24.6368 1.23049 24.784 0.98874 24.5544 0.51143C24.3638 0.115572 23.8558 -0.0587888 23.4743 0.140782C23.3811 0.18959 22.7425 0.78601 22.0555 1.46611L20.8061 2.70274L20.171 2.37304C19.1167 1.82586 18.0275 1.60052 16.4362 1.60052C15.0614 1.60052 13.7448 1.84617 12.5899 2.31822L12.0332 2.54572L11.4461 1.93376C11.1231 1.59718 10.6124 1.057 10.3111 0.733361C10.0099 0.409725 9.6868 0.11136 9.59308 0.0702941C9.38944 -0.0188995 8.79898 -0.0244121 8.56336 0.0606314ZM13.1601 7.30439V8.10793L12.3593 8.09059L11.5584 8.07325L11.5406 7.33356C11.5308 6.92674 11.5342 6.56439 11.5481 6.52834C11.5647 6.4856 11.8496 6.46944 12.3669 6.48182L13.1601 6.50084V7.30439ZM21.438 7.30408L21.4203 8.07325L20.6194 8.09059L19.8185 8.10793V7.30277V6.49762L20.588 6.48021C21.0112 6.47061 21.3796 6.47904 21.4066 6.49886C21.4336 6.51868 21.4477 6.88103 21.438 7.30408ZM6.59273 13.0144C6.57577 13.0581 6.56955 16.814 6.57898 21.361C6.59512 29.1917 6.60203 29.6437 6.71057 29.9189C6.84921 30.2706 7.27553 30.6758 7.61014 30.7739C7.74331 30.813 8.31166 30.8608 8.87304 30.8802L9.89377 30.9155L9.89447 33.8954C9.89516 37.0526 9.90037 37.1173 10.2018 37.6999C10.3992 38.0813 10.934 38.5725 11.3722 38.7747C12.6748 39.3757 14.1483 38.7178 14.7336 37.2737C14.8008 37.1079 14.8272 36.383 14.8536 33.9773L14.8875 30.8935H16.4893H18.0911L18.125 33.9773C18.1514 36.383 18.1778 37.1079 18.2451 37.2737C18.7007 38.3978 19.7361 39.0898 20.8137 38.9906C21.8146 38.8984 22.6856 38.1682 22.9955 37.1614C23.0657 36.9332 23.0837 36.2726 23.0842 33.8954L23.0849 30.9155L24.1056 30.8802C24.6671 30.8608 25.2353 30.813 25.3685 30.7739C25.7281 30.6684 26.1342 30.2685 26.2693 29.8868C26.3764 29.5841 26.3827 29.1076 26.3827 21.2665V12.9665L16.5031 12.9508C8.52297 12.9381 6.61767 12.9504 6.59273 13.0144ZM1.63765 13.1309C0.967921 13.3917 0.416785 13.9332 0.14398 14.5984L0.000448347 14.9486V21.0806C0.000448347 28.0016 -0.033911 27.5089 0.498947 28.2227C1.53947 29.6164 3.5878 29.5343 4.54698 28.0605C4.94083 27.4553 4.93141 27.6257 4.93141 21.1116C4.93141 14.6795 4.93763 14.8027 4.58316 14.2063C4.40288 13.9029 3.91287 13.4295 3.6297 13.2851C3.01399 12.9711 2.20814 12.9087 1.63765 13.1309ZM29.7315 13.1198C29.1703 13.3305 28.6761 13.738 28.3733 14.2398C28.0449 14.7843 28.0472 14.7339 28.0472 21.1116C28.0472 27.6257 28.0378 27.4553 28.4317 28.0605C28.9 28.7801 29.688 29.2235 30.5013 29.2251C31.5026 29.227 32.4352 28.5808 32.8414 27.6038C32.9782 27.2747 32.9782 27.2733 32.9962 21.3903C33.0082 17.4728 32.992 15.3646 32.9477 15.0828C32.8061 14.181 32.2039 13.4607 31.3123 13.1265C30.8766 12.9632 30.1568 12.9602 29.7315 13.1198Z" fill="#AAAAAA"/>
</svg>

<svg width="33" height="39" fill="none" xmlns="http://www.w3.org/2000/svg"><path fill-rule="evenodd" clip-rule="evenodd" d="M8.563.06c-.224.082-.329.52-.237.996.06.316.1.365 1.145 1.398l1.082 1.07-.376.323c-2.166 1.86-3.427 4.357-3.565 7.06l-.022.418h19.799l-.022-.418c-.142-2.79-1.506-5.425-3.638-7.03l-.45-.338 1.07-1.047C24.636 1.23 24.783.99 24.553.512c-.19-.396-.698-.57-1.08-.371-.093.049-.732.645-1.419 1.325l-1.249 1.237-.635-.33c-1.054-.547-2.143-.772-3.735-.772-1.375 0-2.691.245-3.846.717l-.557.228-.587-.612c-.323-.337-.834-.877-1.135-1.2C10.01.41 9.687.11 9.593.07 9.39-.019 8.8-.024 8.563.06Zm4.597 7.244v.804l-.8-.017-.802-.018-.017-.74c-.01-.406-.007-.769.007-.805.017-.042.302-.059.819-.046l.793.019v.803Zm8.278 0-.018.77-.8.017-.802.017v-1.61l.77-.018c.423-.01.792-.001.819.019.027.02.04.382.031.805Zm-14.845 5.71c-.017.044-.023 3.8-.014 8.347.016 7.83.023 8.283.132 8.558.138.352.565.757.9.855.132.039.7.087 1.262.106l1.02.036.001 2.98c.001 3.157.006 3.221.308 3.804.197.381.732.872 1.17 1.075 1.303.6 2.776-.057 3.362-1.501.067-.166.093-.891.12-3.297l.034-3.083H18.09l.034 3.083c.026 2.406.053 3.13.12 3.297.456 1.124 1.491 1.816 2.569 1.717 1-.093 1.872-.823 2.181-1.83.07-.228.089-.888.09-3.266v-2.98l1.02-.035c.562-.02 1.13-.067 1.264-.106.36-.106.765-.506.9-.887.107-.303.114-.78.114-8.62v-8.3l-9.88-.016c-7.98-.013-9.885 0-9.91.063Zm-4.955.117c-.67.26-1.221.802-1.494 1.467l-.144.35v6.133C0 28-.034 27.509.5 28.223c1.04 1.393 3.089 1.311 4.048-.162.394-.606.384-.435.384-6.95 0-6.431.007-6.308-.348-6.905-.18-.303-.67-.776-.953-.92-.616-.315-1.422-.377-1.992-.155Zm28.093-.011a2.729 2.729 0 0 0-1.358 1.12c-.328.544-.326.494-.326 6.872 0 6.514-.01 6.343.385 6.949.468.72 1.256 1.163 2.07 1.164 1 .002 1.933-.644 2.34-1.621.136-.33.136-.33.154-6.214.012-3.917-.004-6.025-.048-6.307-.142-.902-.744-1.622-1.636-1.957-.435-.163-1.155-.166-1.58-.006Z" fill="#AAA"/></svg>
